X: 106
T: No_34_The_Sioux_Women_Gather_Up_Their_Wounded.krn
%%abc-version 2.0
%%abcx-abcm2ps-target-version 5.9.1 (29 Sep 2008)
%%abc-creator hum2abc beta
%%abcx-conversion-date 2020/08/10 18:54:57
%%gracespace 0 6 6
%%humdrum-veritas 2867378005
%%humdrum-veritas-data 2832576765
%%linebreak <none>
%%barnumbers 0
L: 1/8
M: 2/4
%%staves {1 2}
V: 1 clef=bass
V: 2 clef=bass
K: C
[V:1] z/ C<EG/ [I:setbarnb 1]| 
[V:2] z3 | 
[V:1] E2DC | 
[V:2] !accent!G,,G,, !accent!G,,G,, | 
[V:1] E>E E3/E/ | 
[V:2] !accent!G,,G,, !accent!G,,G,, | 
[V:1] D2A,G, ||  
[V:2] z4 ||  
[V:1] [M:3/4]C2A,>C C3/C/ ||  
[V:2] [M:3/4]z6 ||  
[V:1] [M:2/4]E2ED ||  
[V:2] [M:2/4]z4 ||  
[V:1] [M:3/4]C2A,>D D3/A,/ ||  
[V:2] [M:3/4]z6 ||  
[V:1] [M:2/4]A,2A,G, | 
[V:2] [M:2/4]z4 | 
[V:1] A,>A, A,3/G,/ | 
[V:2] z4 | 
[V:1] E,2D,C, | 
[V:2] z4 | 
[V:1] D,2E,3/E,/ | 
[V:2] z4 | 
[V:1] E,>D,!fermata!C,2 | 
[V:2] z4 | 
[V:1] D,2C,2 | 
[V:2] z4 | 
[V:1] A,,C, A,,3/A,,/ | 
[V:2] z4 | 
[V:1] A,,4 |]  
[V:2] z4 |]  


